src/static/logos/codesandbox.svg

<?xml version="1.0" encoding="UTF-8"?>
<svg width="256px" height="296px" viewBox="0 0 256 296" version="1.1" xmlns="http://www.w3.org/2000/svg" xmlns:xlink="http://www.w3.org/1999/xlink" preserveAspectRatio="xMidYMid">
    <g>
        <path d="M115.497674,261.08837 L115.497674,154.478845 L23.8139535,101.729261 L23.8139535,162.501763 L65.8104558,186.8486 L65.8104558,232.549219 L115.497674,261.08837 Z M139.311628,261.714907 L189.916577,232.563707 L189.916577,185.779949 L232.186047,161.285235 L232.186047,101.27387 L139.311628,154.895035 L139.311628,261.714907 Z M219.971965,80.8276886 L171.155386,52.5391067 L128.292316,77.4106841 L85.1040206,52.5141067 L35.8521355,81.1812296 L127.765737,134.063073 L219.971965,80.8276886 Z M0,222.211907 L0,74.4948807 L127.986799,0 L256,74.1820085 L256,221.978632 L127.983954,295.72283 L0,222.211907 Z" fill="#000000"></path>
    </g>
</svg>

<svg width="256" height="296" xmlns="http://www.w3.org/2000/svg" preserveAspectRatio="xMidYMid"><path d="M115.498 261.088v-106.61L23.814 101.73v60.773L65.81 186.85v45.7l49.688 28.54zm23.814.627l50.605-29.151V185.78l42.269-24.495v-60.011l-92.874 53.621v106.82zm80.66-180.887l-48.817-28.289-42.863 24.872-43.188-24.897-49.252 28.667 91.914 52.882 92.206-53.235zM0 222.212V74.495L127.987 0 256 74.182v147.797l-128.016 73.744L0 222.212z"/></svg>
